flaticon/stationery/paper-clip-1.svg

<svg xmlns="http://www.w3.org/2000/svg" width="32" height="32" viewBox="0 0 24 24">
    <path d="M 18.605469 9.871094 L 15.527344 9.871094 L 14.609375 4.777344 C 15.238281 4.21875 15.648438 3.492188 15.59375 2.746094 C 15.441406 0.65625 13.273438 -0.046875 12 0.00390625 C 8.992188 0.117188 8.390625 1.996094 8.390625 2.769531 C 8.390625 3.503906 8.734375 4.214844 9.351562 4.765625 L 8.445312 9.871094 L 5.394531 9.871094 C 2.421875 9.871094 0.00390625 12.289062 0.00390625 15.261719 L 0.00390625 23.488281 C 0.00390625 23.769531 0.230469 24 0.515625 24 L 23.484375 24 C 23.769531 24 23.996094 23.769531 23.996094 23.488281 L 23.996094 15.261719 C 23.996094 12.289062 21.578125 9.871094 18.605469 9.871094 Z M 12 1.03125 C 13.976562 1.03125 14.621094 2.242188 14.574219 2.746094 C 14.519531 3.257812 14.273438 3.773438 13.753906 4.15625 C 13.742188 4.164062 13.734375 4.171875 13.726562 4.179688 C 13.539062 4.332031 13.472656 4.605469 13.578125 4.820312 L 14.492188 9.871094 L 9.480469 9.871094 L 10.386719 4.785156 C 10.480469 4.574219 10.414062 4.3125 10.230469 4.164062 C 10.222656 4.15625 10.214844 4.152344 10.210938 4.148438 C 9.703125 3.773438 9.398438 3.269531 9.410156 2.769531 C 9.425781 2.136719 10.0625 1.03125 12 1.03125 Z M 1.023438 22.980469 L 1.023438 15.261719 C 1.023438 12.851562 2.984375 10.894531 5.394531 10.894531 L 8.261719 10.894531 L 6.109375 22.980469 Z M 7.144531 22.980469 L 9.296875 10.894531 L 14.675781 10.894531 L 16.851562 22.980469 Z M 22.976562 22.980469 L 17.890625 22.980469 L 15.710938 10.894531 L 18.605469 10.894531 C 21.015625 10.894531 22.976562 12.851562 22.976562 15.261719 Z M 22.976562 22.980469"/>
</svg>

<svg xmlns="http://www.w3.org/2000/svg" width="32" height="32" viewBox="0 0 24 24">
    <path d="M18.605 9.871h-3.078l-.918-5.094c.63-.558 1.04-1.285.985-2.03C15.44.656 13.274-.048 12 .003 8.992.117 8.39 1.996 8.39 2.77c0 .734.344 1.445.962 1.996L8.445 9.87h-3.05a5.396 5.396 0 0 0-5.391 5.39v8.227c0 .282.226.512.512.512h22.968c.286 0 .512-.23.512-.512v-8.226a5.396 5.396 0 0 0-5.39-5.39zM12 1.031c1.977 0 2.621 1.211 2.574 1.715a1.983 1.983 0 0 1-.82 1.41c-.012.008-.02.016-.027.024a.537.537 0 0 0-.149.64l.914 5.051H9.48l.907-5.086a.534.534 0 0 0-.157-.62c-.007-.009-.015-.013-.02-.017-.507-.375-.812-.878-.8-1.378.016-.633.652-1.739 2.59-1.739zM1.023 22.981v-7.72c0-2.41 1.961-4.366 4.372-4.366h2.867L6.109 22.98zm6.122 0l2.152-12.086h5.379l2.176 12.085zm15.832 0H17.89l-2.18-12.086h2.894a4.373 4.373 0 0 1 4.372 4.367zm0 0"/>
</svg>
